ERK
CUT[BESENBINDERS TOCHTER]
REG[Europa, Mitteleuropa, Deutschland]
TRD[]
FKT[]
SIG[E0884]
KEY[E0884   08  F 2/4]
MEL[54#53  1_1
    3  21#2-7  -5_0
    3  54#53  1_1
    3  21#2-7  1_0
    -5  -5-5-5-5  4_4
    3  2234  5_+1
    3  54#53  111
    3  2123  1_0
    -5  -5-5-5-5  4_4
    3  2234  5_+1
    3  54#53  111
    3  2123  1_0_ //]
BEM[]
MEL_SEM[-1 1 -3 -4 0 4 -2 -1 1 -3 -4 9 3 -1 1 -3 -4 0 4 -2 -1 1 -3 1 -5 0 0 0 0 10 0 -1 -2 0 2 1 2 5 -8 3 -1 1 -3 -4 0 0 4 -2 -2 2 2 -4 -5 0 0 0 0 10 0 -1 -2 0 2 1 2 5 -8 3 -1 1 -3 -4 0 0 4 -2 -2 2 2 -4]
MEL_RAW[54#53  11
    3  21#2-7  -50
    3  54#53  11
    3  21#2-7  10
    -5  -5-5-5-5  44
    3  2234  5+1
    3  54#53  111
    3  2123  10
    -5  -5-5-5-5  44
    3  2234  5+1
    3  54#53  111
    3  2123  10]
NO_REP[54#531
    321#2-7-50
    354#531
    321#2-710
    -54
    32345+1
    354#531
    3212310
    -54
    32345+1
    354#531
    3212310]
RTM[xxxx  x_x
    x  xxxx  x_x
    x  xxxx  x_x
    x  xxxx  x_x
    x  xxxx  x_x
    x  xxxx  x_x
    x  xxxx  xxx
    x  xxxx  x_x
    x  xxxx  x_x
    x  xxxx  x_x
    x  xxxx  xxx
    x  xxxx  x_x_]
SCL_DEG[-5-711#2344#5+1]
SCL_SEM[4 1 1 1 2 1 1 1 5]

